X: 2
T: The South Wind
R: waltz
M: 3/4
L: 1/8
K: Gmaj
c2|B3A G2|B3c d2|A3B A2|D4 cd|B3A G2|E3D E2|1G4 G2|G4:|2G3A G2|G3B d2||g4 g2|g3f e2|d3e d2|d4 cd|B3A G2|B3c d2|A3B A2|A2B2d2|g3a g2|g3f e2|d3e d2|d4 cA|B3A G2|Ac-c2 F2|G3A G2|G4|


Tune 601	Setting 13610

